X:199
T: MEIN SCHATZ IST AUF DIE WANDERSCHAFT
N: Z0198
O: Europa, Mitteleuropa, Deutschland
R: Romanze, Tod
M: 4/4
L: 1/8
K: D
DE | =F2D2D2E2 | =FFD2D2
E2 | =F2FFGGGG | A3_BA2
=FG | A2_BB=c2A2 | _BAG=FE2
FG | A2=FGA2(3GFE | D2C2D2

@@@ Tune index: 9957
